packages/ui/src/components/icon-v2/icons/help-circle-solid.svg

<svg viewBox="0 0 16 16" fill="none" xmlns="http://www.w3.org/2000/svg">
<path fill-rule="evenodd" clip-rule="evenodd" d="M8 2C11.3137 2 14 4.68629 14 8C14 11.3137 11.3137 14 8 14C4.68629 14 2 11.3137 2 8C2 4.68629 4.68629 2 8 2ZM8.34082 11.2285C8.13578 11.044 7.81958 11.0599 7.63477 11.2646L7.62891 11.2715C7.44447 11.4765 7.46042 11.7927 7.66504 11.9775C7.86998 12.1618 8.18628 12.1458 8.37109 11.9414L8.37793 11.9346C8.56241 11.7296 8.54534 11.4134 8.34082 11.2285ZM7.85059 4.125C7.3378 4.12504 6.8051 4.28777 6.39258 4.6377C5.96915 4.99698 5.70025 5.53128 5.7002 6.2002C5.7004 6.4761 5.92427 6.70009 6.2002 6.7002C6.47601 6.69996 6.69999 6.47602 6.7002 6.2002C6.70024 5.81954 6.844 5.56605 7.03906 5.40039C7.24515 5.2256 7.53867 5.12504 7.85059 5.125C8.16224 5.12518 8.45518 5.22575 8.66113 5.40039C8.85608 5.56606 8.99995 5.81969 9 6.2002C8.99994 6.48096 8.9328 6.64666 8.84961 6.77148C8.7519 6.9179 8.62135 7.03103 8.41602 7.21582C8.22501 7.38772 7.98353 7.61205 7.7998 7.93652C7.61119 8.26974 7.50003 8.67584 7.5 9.2002C7.50024 9.476 7.72418 9.69998 8 9.7002C8.27579 9.69996 8.49976 9.47599 8.5 9.2002C8.50003 8.82476 8.57733 8.59229 8.66992 8.42871C8.76741 8.25668 8.90119 8.12437 9.08496 7.95898C9.25419 7.80671 9.49834 7.60098 9.68164 7.32617C9.87953 7.0293 9.99993 6.66887 10 6.2002C9.99995 5.53146 9.73085 4.99697 9.30762 4.6377C8.89529 4.28801 8.36311 4.12518 7.85059 4.125Z" fill="currentColor"/>
</svg>

<svg xmlns="http://www.w3.org/2000/svg" fill="none" viewBox="0 0 16 16"><path fill="currentColor" fill-rule="evenodd" d="M8 2a6 6 0 1 1 0 12A6 6 0 0 1 8 2m.34 9.229a.5.5 0 0 0-.705.036l-.006.006a.5.5 0 0 0 .742.67l.007-.006a.5.5 0 0 0-.037-.707m-.49-7.104a2.26 2.26 0 0 0-1.457.513C5.969 4.997 5.7 5.53 5.7 6.2a.5.5 0 0 0 1 0c0-.38.144-.634.34-.8.205-.174.499-.275.81-.275s.605.1.811.275c.195.166.339.42.339.8 0 .281-.067.447-.15.571-.098.147-.229.26-.434.445-.191.172-.432.396-.616.72-.189.334-.3.74-.3 1.264a.5.5 0 0 0 1 0c0-.375.077-.608.17-.771.097-.172.231-.305.415-.47.17-.152.413-.358.597-.633C9.88 7.03 10 6.67 10 6.2c0-.669-.27-1.203-.692-1.562a2.26 2.26 0 0 0-1.457-.513" clip-rule="evenodd"/></svg>
